remix/Logos/google-play-fill.svg

<svg viewBox="0 0 24 24" fill="currentColor" xmlns="http://www.w3.org/2000/svg"><path d="M3.60972 1.81396L13.793 12L3.61082 22.1864C3.41776 22.1048 3.24866 21.962 3.13555 21.7667C3.0474 21.6144 3.00098 21.4416 3.00098 21.2656V2.73453C3.00098 2.32109 3.25188 1.96625 3.60972 1.81396ZM14.5 12.707L16.802 15.009L5.86498 21.342L14.5 12.707ZM17.699 9.50896L20.5061 11.1347C20.9841 11.4114 21.1473 12.0232 20.8705 12.5011C20.783 12.6523 20.6574 12.778 20.5061 12.8655L17.698 14.491L15.207 12L17.699 9.50896ZM5.86498 2.65796L16.803 8.98996L14.5 11.293L5.86498 2.65796Z"/></svg>

<svg viewBox="0 0 24 24" xmlns="http://www.w3.org/2000/svg"><path fill="none" d="M0 0h24v24H0Z"/><path d="M3.6 1.814L13.783 12 3.593 22.186v0c-.38-.16-.62-.52-.61-.92V2.72 2.72c0-.41.23-.77.609-.92Zm10.89 10.893l2.3 2.3 -10.94 6.33 8.635-8.635Zm3.19-3.2l2.8 1.62v0c.47.27.64.88.36 1.36 -.09.15-.22.27-.37.36l-2.808 1.62 -2.5-2.5 2.49-2.5ZM5.84 2.64l10.93 6.33 -2.31 2.3L5.82 2.64Z"/></svg>
